assets/NYU.svg

<?xml version="1.0" encoding="UTF-8" standalone="no"?>
<svg width="133px" height="46px" viewBox="0 0 133 46" version="1.1" xmlns="http://www.w3.org/2000/svg" xmlns:xlink="http://www.w3.org/1999/xlink" xmlns:sketch="http://www.bohemiancoding.com/sketch/ns">
    <!-- Generator: Sketch 3.3.3 (12072) - http://www.bohemiancoding.com/sketch -->
    <title>Imported Layers</title>
    <desc>Created with Sketch.</desc>
    <defs></defs>
    <g id="Page-1" stroke="none" stroke-width="1" fill="none" fill-rule="evenodd" sketch:type="MSPage">
        <g id="Home---Desktop-Copy-2" sketch:type="MSArtboardGroup" transform="translate(-739.000000, -2148.000000)" fill="#B1B1B1">
            <g id="Group-+-Currently-in-use-at" sketch:type="MSLayerGroup" transform="translate(110.000000, 1814.000000)">
                <g id="Group" sketch:type="MSShapeGroup">
                    <g id="Row-3-+-Row-1-+-Row-2">
                        <g transform="translate(0.000000, 93.000000)">
                            <g id="Row-3" transform="translate(46.079694, 221.405882)">
                                <g id="Imported-Layers" transform="translate(583.000000, 20.000000)">
                                    <path d="M0.0440549451,0.0313133641 L45.247978,0.0313133641 L45.247978,44.9251382 L0.0440549451,44.9251382 L0.0440549451,0.0313133641 L0.0440549451,0.0313133641 Z M21.2144396,23.3485714 C21.1872967,23.2508986 21.1753956,23.1857834 21.1513846,23.1254378 C21.0695385,22.920553 20.9766264,22.7198157 20.9006264,22.5128571 C20.4847143,21.3828802 20.326033,20.2230415 20.5133187,19.0271198 C20.7592747,17.4579263 21.4867033,16.1104147 22.5459011,14.9547235 C23.238044,14.19947 24.0287363,13.5329724 24.7835165,12.8353687 C24.9173516,12.7117742 24.9793626,12.5890092 24.9787363,12.4075576 C24.976022,11.6054378 24.8231868,10.8259217 24.6296374,10.0532488 C24.396,9.11965438 24.1195604,8.1993318 23.6923736,7.33105991 C23.6447692,7.23442396 23.5748242,7.14857143 23.4773187,6.99988479 C23.1616264,8.06412442 22.6273297,8.92306452 22.007011,9.72248848 C21.2463846,10.7023272 20.4360659,11.6440092 19.6512198,12.6055991 C18.8283736,13.6140553 18.0894615,14.6751843 17.6054835,15.8918433 C16.9636593,17.5052074 17.0018681,19.061129 18.006989,20.5345161 C18.8033187,21.7018203 19.9065714,22.5350461 21.0664066,23.3064747 C21.095011,23.325553 21.1353077,23.3267972 21.2144396,23.3485714 L21.2144396,23.3485714 Z M31.8897253,13.41 C31.8688462,13.4089631 31.847967,13.4079263 31.8270879,13.406682 C31.7947253,13.4668203 31.7663297,13.529447 31.7295824,13.5868894 C31.441033,14.038341 31.1871429,14.5171659 30.8545385,14.9339862 C29.9369011,16.0842857 28.7242418,16.8355991 27.3963297,17.4552304 C24.8877033,18.6256452 23.4253297,20.6112442 22.9409341,23.3172581 C22.9075275,23.5047235 22.9628571,23.5696313 23.1386593,23.5590553 C23.8113846,23.5190323 24.4912088,23.5258756 25.1551648,23.4273733 C27.6884286,23.0514055 29.555022,21.7341705 30.695022,19.4395853 C31.6076484,17.6026728 31.8661319,15.627235 31.9214615,13.6111521 C31.9233407,13.5445853 31.901,13.4771889 31.8897253,13.41 L31.8897253,13.41 Z M28.080956,9.87179724 C28.0513077,9.87698157 28.0216593,9.8821659 27.9918022,9.88735023 C27.962989,9.93172811 27.9312527,9.97423963 27.905989,10.0202765 C27.6999121,10.393341 27.510956,10.7767742 27.2869231,11.1388479 C26.6808022,12.1184793 25.9823956,13.0201382 25.0593297,13.7370276 C24.3135275,14.3160138 23.6245165,14.957212 23.0309231,15.6956682 C21.309022,17.8380415 20.8651319,20.1838479 21.8796484,22.7644009 C21.9193187,22.8651843 21.9769451,22.9593318 22.0326923,23.0692396 C22.0773736,23.0232028 22.0944945,23.013871 22.0978352,23.0010138 C22.1375055,22.8488018 22.1752967,22.6961751 22.2135055,22.5435484 C22.8202527,20.1181106 24.1598571,18.2351613 26.3832747,17.0160138 C27.0012967,16.6769585 27.6351868,16.366106 28.2661538,16.0504839 C28.7503407,15.8082719 29.0867033,15.4656912 29.130967,14.8993548 C29.1462088,14.7033871 29.1908901,14.5086636 29.1959011,14.3126959 C29.2255495,13.1441475 28.9497363,12.0301382 28.5511538,10.9430876 C28.4171099,10.5776959 28.239011,10.2282719 28.080956,9.87179724 L28.080956,9.87179724 Z M20.0182747,23.5744009 C19.982989,23.4929032 19.9809011,23.4736175 19.9702527,23.4657373 C19.9128352,23.4238479 19.8545824,23.3832028 19.7946593,23.3454608 C18.9774505,22.8326267 18.2235055,22.2461751 17.611956,21.4940323 C16.5256154,20.1577189 16.131,18.6443088 16.431033,16.9519355 C16.6139341,15.9196313 17.0227473,14.9762903 17.5877363,14.098894 C17.730967,13.8763825 17.7902637,13.666106 17.7203187,13.4102074 C17.4691429,12.4929954 17.1041758,11.6224424 16.6469231,10.7892166 C16.6112198,10.7241014 16.5404396,10.6780645 16.4899121,10.6268433 C16.3560769,11.0617051 16.2546044,11.4741705 16.1032308,11.867765 C15.5908571,13.1984793 14.8828462,14.4321429 14.1577143,15.6564747 C13.4634835,16.8285484 13.2047912,18.0910369 13.4415604,19.4308756 C13.7250989,21.03553 14.6966044,22.1171889 16.1537582,22.797788 C17.1298571,23.2535945 18.1719341,23.4458295 19.2382308,23.5310599 C19.4856484,23.5507604 19.7341099,23.5590553 20.0182747,23.5744009 L20.0182747,23.5744009 Z M19.7201209,27.2550691 C19.7201209,27.36 19.711978,27.4464747 19.7211648,27.5310829 C19.9535495,29.63053 20.1899011,31.7297696 20.4208242,33.829424 C20.632956,35.7567512 20.8402857,37.6844931 21.0476154,39.612235 C21.0666154,39.7887097 21.155978,39.9023502 21.318,39.9674654 C21.668978,40.1084793 21.9543956,39.9293088 22.0038791,39.5319816 C22.0761209,38.9534101 22.1420989,38.3742166 22.216011,37.7958525 C22.4316923,36.1082488 22.6513407,34.4210599 22.8672308,32.7334562 C23.0561868,31.2563364 23.2428462,29.7788018 23.4290879,28.3014747 C23.4720989,27.9593088 23.5094725,27.6167281 23.5518571,27.2550691 L19.7201209,27.2550691 L19.7201209,27.2550691 Z M24.893967,24.4812442 C24.8413516,24.4696313 24.8183846,24.4600922 24.7956264,24.4600922 C22.7056264,24.4592627 20.6158352,24.4602995 18.5258352,24.45553 C18.3681978,24.4553226 18.3418901,24.5247926 18.3429341,24.6558525 C18.3466923,25.168894 18.3437692,25.6817281 18.3460659,26.1947696 C18.3462747,26.247235 18.3642308,26.2994931 18.3734176,26.34947 L24.893967,26.34947 L24.893967,24.4812442 L24.893967,24.4812442 Z" id="Fill-1"></path>
                                    <path d="M57.0375824,9.52092166 L57.3056703,9.52092166 C58.8711868,9.52029954 60.4367033,9.52237327 62.0024286,9.51490783 C62.169044,9.51407834 62.2617473,9.5818894 62.3546593,9.70320276 C64.2091429,12.1280184 66.0667582,14.550553 67.9233297,16.9741244 C69.9767912,19.6548387 72.0298352,22.3359677 74.0832967,25.016682 C74.1292308,25.0768203 74.1795495,25.1338479 74.271,25.2445853 L74.271,9.53440092 L79.820044,9.53440092 L79.820044,35.0346774 L79.5504945,35.0346774 C78.1359341,35.0348848 76.7213736,35.0311521 75.3066044,35.0400691 C75.1099231,35.0413134 74.9894505,34.9784793 74.8725275,34.8252304 C72.8986154,32.2428111 70.9194835,29.6643318 68.9418132,27.085023 C66.8722747,24.3862673 64.8029451,21.6875115 62.7331978,18.9889631 C62.7012527,18.9474885 62.6642967,18.9099539 62.5874615,18.8230645 L62.5874615,35.0209908 L57.0375824,35.0209908 L57.0375824,9.52092166" id="Fill-2"></path>
                                    <path d="M110.534066,9.5306682 L116.133846,9.5306682 C116.139275,9.63145161 116.149088,9.72974654 116.149088,9.82804147 C116.149923,14.5325115 116.146374,19.2367742 116.152011,23.9412442 C116.153473,25.1398618 116.304846,26.3169124 116.816593,27.4207604 C117.531912,28.9629954 118.749374,29.864447 120.422418,30.1626498 C121.484121,30.3517742 122.541022,30.3246083 123.583934,30.0324194 C125.207286,29.5778571 126.263352,28.5258525 126.828132,26.9678571 C127.142989,26.0989631 127.263044,25.1939862 127.26367,24.2747005 C127.26722,19.4597005 127.265549,14.6447005 127.265758,9.82990783 L127.265758,9.53605991 L132.878901,9.53605991 C132.883703,9.62460829 132.891846,9.7083871 132.891846,9.79237327 C132.888505,14.7728571 132.913769,19.7537558 132.867209,24.7340323 C132.846538,26.9214055 132.350451,29.0196083 131.179758,30.9141705 C130.045604,32.7492166 128.418495,33.978318 126.390505,34.6943779 C124.65378,35.3075806 122.854418,35.4875806 121.021231,35.4247465 C119.624209,35.3770507 118.257253,35.1734101 116.937484,34.7039171 C114.148242,33.7120507 112.278934,31.8110599 111.289681,29.0471889 C110.768538,27.5912212 110.534692,26.0815438 110.530308,24.5434562 C110.516527,19.6023733 110.524044,14.6612903 110.523626,9.72 C110.523626,9.66546083 110.529473,9.61071429 110.534066,9.5306682" id="Fill-3"></path>
                                    <path d="M98.2030659,35.020576 L92.5556813,35.020576 L92.5556813,34.7103456 C92.5556813,31.560553 92.5583956,28.4107604 92.5496264,25.2609677 C92.5492088,25.0849078 92.4926264,24.8852074 92.398044,24.7365207 C89.909044,20.8219355 87.4116923,16.9123272 84.9151758,13.0023041 C84.2305495,11.929977 83.544044,10.858894 82.8587912,9.78698157 C82.8122308,9.71419355 82.7683846,9.63995392 82.7092967,9.54352535 C82.7786154,9.53398618 82.8278901,9.52112903 82.8771648,9.52112903 C84.9437802,9.51988479 87.0101868,9.52175115 89.0765934,9.51552995 C89.2386154,9.51511521 89.3167033,9.58085253 89.3922857,9.70776498 C91.3409341,12.9703687 93.2927143,16.231106 95.2440769,19.4920507 C95.2954396,19.5779032 95.3484725,19.6627189 95.4196703,19.7786406 C95.7902747,19.1720737 96.1406264,18.6003456 96.4890989,18.0275806 C98.1694505,15.2670276 99.8506374,12.5068894 101.525769,9.74322581 C101.628077,9.57442396 101.738945,9.51428571 101.940011,9.51511521 C103.887198,9.52341014 105.834593,9.51926267 107.78178,9.51947005 C107.858407,9.51947005 107.935033,9.5275576 108.051538,9.53398618 C107.982011,9.645553 107.930857,9.73016129 107.877407,9.81331797 C105.758802,13.1117972 103.640824,16.4104839 101.521176,19.7081336 C100.469912,21.3436866 99.4178132,22.9786175 98.3602857,24.6102304 C98.2481648,24.7833871 98.1982637,24.9542627 98.1984725,25.1610138 C98.2041099,28.3580876 98.2028571,31.5553687 98.2030659,34.7524424 L98.2030659,35.020576" id="Fill-4"></path>
                                </g>
                            </g>
                        </g>
                    </g>
                </g>
            </g>
        </g>
    </g>
</svg>

<?xml version="1.0" encoding="UTF-8" standalone="no"?>
<svg
   width="300"
   height="90"
   viewBox="0 0 300 90"
   version="1.1"
   id="svg7464"
   sodipodi:docname="NYU.svg"
   inkscape:version="1.1.1 (3bf5ae0d25, 2021-09-20)"
   xmlns:inkscape="http://www.inkscape.org/namespaces/inkscape"
   xmlns:sodipodi="http://sodipodi.sourceforge.net/DTD/sodipodi-0.dtd"
   xmlns="http://www.w3.org/2000/svg"
   xmlns:svg="http://www.w3.org/2000/svg"
   xmlns:rdf="http://www.w3.org/1999/02/22-rdf-syntax-ns#"
   xmlns:cc="http://creativecommons.org/ns#"
   xmlns:dc="http://purl.org/dc/elements/1.1/"
   xmlns:sketch="http://www.bohemiancoding.com/sketch/ns">
  <sodipodi:namedview
     id="namedview7466"
     pagecolor="#ffffff"
     bordercolor="#666666"
     borderopacity="1.0"
     inkscape:pageshadow="2"
     inkscape:pageopacity="0.0"
     inkscape:pagecheckerboard="0"
     showgrid="false"
     inkscape:zoom="2.0139425"
     inkscape:cx="128.10694"
     inkscape:cy="-75.225584"
     inkscape:window-width="1866"
     inkscape:window-height="1016"
     inkscape:window-x="54"
     inkscape:window-y="27"
     inkscape:window-maximized="1"
     inkscape:current-layer="svg7464" />
  <!-- Generator: Sketch 3.3.3 (12072) - http://www.bohemiancoding.com/sketch -->
  <title
     id="title7445">Imported Layers</title>
  <desc
     id="desc7447">Created with Sketch.</desc>
  <defs
     id="defs7449" />
  <g
     id="Page-1"
     stroke="none"
     stroke-width="1"
     fill="none"
     fill-rule="evenodd"
     sketch:type="MSPage"
     transform="matrix(1.9913814,0,0,1.9913814,17.474259,-0.57098241)">
    <g
       id="Home---Desktop-Copy-2"
       sketch:type="MSArtboardGroup"
       transform="translate(-739,-2148)"
       fill="#b1b1b1">
      <g
         id="Group-+-Currently-in-use-at"
         sketch:type="MSLayerGroup"
         transform="translate(110,1814)">
        <g
           id="Group"
           sketch:type="MSShapeGroup">
          <g
             id="Row-3-+-Row-1-+-Row-2">
            <g
               transform="translate(0,93)"
               id="g7457">
              <g
                 id="Row-3"
                 transform="translate(46.079694,221.40588)">
                <g
                   id="Imported-Layers"
                   transform="translate(583,20)">
                  <path
                     d="M 0.04405495,0.03131336 H 45.247978 V 44.925138 H 0.04405495 Z M 21.21444,23.348571 C 21.1873,23.250901 21.1754,23.185783 21.15139,23.125438 21.06954,22.920553 20.976631,22.719816 20.900631,22.512857 20.484719,21.38288 20.326038,20.223041 20.513324,19.02712 c 0.245956,-1.569194 0.973384,-2.916705 2.032582,-4.072396 0.692143,-0.755254 1.482835,-1.421752 2.237615,-2.119355 0.133836,-0.123595 0.195847,-0.24636 0.19522,-0.427811 -0.0027,-0.80212 -0.155549,-1.581636 -0.349099,-2.354309 C 24.396,9.1196544 24.11956,8.1993318 23.692374,7.3310599 23.644769,7.234424 23.574824,7.1485714 23.477319,6.9998848 23.161626,8.0641244 22.62733,8.9230645 22.007011,9.7224885 21.246385,10.702327 20.436066,11.644009 19.65122,12.605599 c -0.822846,1.008456 -1.561759,2.069585 -2.045737,3.286244 -0.641824,1.613364 -0.603615,3.169286 0.401506,4.642673 0.79633,1.167304 1.899582,2.00053 3.059418,2.771959 0.0286,0.01908 0.0689,0.02032 0.148033,0.0421 z M 31.889725,13.41 c -0.02088,-10e-4 -0.04176,-0.0021 -0.06264,-0.0033 -0.03236,0.06014 -0.06076,0.122765 -0.09751,0.180207 -0.288549,0.451452 -0.542439,0.930277 -0.875044,1.347097 -0.917637,1.1503 -2.130296,1.901613 -3.458208,2.521244 -2.508627,1.170415 -3.971,3.156014 -4.455396,5.862028 -0.03341,0.187465 0.02192,0.252373 0.197725,0.241797 0.672726,-0.04002 1.35255,-0.03318 2.016506,-0.131682 2.533264,-0.375967 4.399857,-1.693203 5.539857,-3.987788 0.912626,-1.836912 1.17111,-3.81235 1.226439,-5.828433 0.0019,-0.06657 -0.02046,-0.133963 -0.03174,-0.201152 z M 28.080956,9.8717972 c -0.02965,0.00518 -0.0593,0.010369 -0.08915,0.015553 -0.02881,0.044378 -0.06055,0.086889 -0.08581,0.1329268 -0.206077,0.373064 -0.395033,0.756497 -0.619066,1.118571 -0.606121,0.979631 -1.304527,1.88129 -2.227593,2.59818 -0.745803,0.578986 -1.434814,1.220184 -2.028407,1.95864 -1.721901,2.142373 -2.165791,4.48818 -1.151275,7.068733 0.03967,0.100783 0.0973,0.194931 0.153044,0.304839 0.04468,-0.04604 0.0618,-0.05537 0.06514,-0.06823 0.03967,-0.152212 0.07746,-0.304839 0.11567,-0.457466 0.606748,-2.425437 1.946352,-4.308387 4.16977,-5.527534 0.618022,-0.339055 1.251912,-0.649908 1.882879,-0.96553 0.484187,-0.242212 0.820549,-0.584793 0.864813,-1.151129 0.01524,-0.195968 0.05992,-0.390691 0.06493,-0.586659 0.02965,-1.168548 -0.246165,-2.282558 -0.644747,-3.369608 C 28.41711,10.577696 28.239011,10.228272 28.080956,9.8717972 Z M 20.018275,23.574401 c -0.03529,-0.0815 -0.03737,-0.100784 -0.04802,-0.108664 -0.05742,-0.04189 -0.115671,-0.08253 -0.175594,-0.120276 -0.817209,-0.512834 -1.571153,-1.099286 -2.182703,-1.851429 -1.086341,-1.336313 -1.480956,-2.849723 -1.180923,-4.542097 0.182901,-1.032304 0.591714,-1.975645 1.156703,-2.853041 0.143231,-0.222511 0.202528,-0.432788 0.132583,-0.688687 -0.251176,-0.917212 -0.616143,-1.787765 -1.073396,-2.62099 -0.0357,-0.06512 -0.106483,-0.111152 -0.157011,-0.162374 -0.133835,0.434862 -0.235308,0.847328 -0.386681,1.240922 -0.512374,1.330714 -1.220385,2.564378 -1.945517,3.78871 -0.69423,1.172073 -0.952923,2.434562 -0.716154,3.774401 0.283539,1.604654 1.255044,2.686313 2.712198,3.366912 0.976099,0.455806 2.018176,0.648041 3.084473,0.733272 0.247417,0.0197 0.495879,0.028 0.780044,0.04334 z m -0.298154,3.680668 c 0,0.104931 -0.0081,0.191406 0.001,0.276014 0.232384,2.099447 0.468736,4.198687 0.699659,6.298341 0.212132,1.927327 0.419462,3.855069 0.626791,5.782811 0.019,0.176475 0.108363,0.290115 0.270385,0.35523 0.350978,0.141014 0.636396,-0.03816 0.685879,-0.435483 0.07224,-0.578572 0.13822,-1.157765 0.212132,-1.736129 0.215681,-1.687604 0.43533,-3.374793 0.65122,-5.062397 0.188956,-1.47712 0.375615,-2.954654 0.561857,-4.431981 0.04301,-0.342166 0.08038,-0.684747 0.122769,-1.046406 h -3.831736 z m 5.173846,-2.773825 c -0.05261,-0.01161 -0.07558,-0.02115 -0.09834,-0.02115 -2.09,-8.29e-4 -4.179791,2.08e-4 -6.269791,-0.0046 -0.157637,-2.07e-4 -0.183945,0.06926 -0.182901,0.200323 0.0038,0.513041 8.35e-4,1.025875 0.0031,1.538917 2.09e-4,0.05247 0.01816,0.104723 0.02735,0.1547 h 6.520549 v -1.868226 z"
                     id="Fill-1" />
                  <path
                     d="m 57.037582,9.5209217 h 0.268088 c 1.565517,-6.222e-4 3.131033,0.00145 4.696759,-0.00601 0.166615,-8.295e-4 0.259318,0.066982 0.35223,0.188295 1.854484,2.4248153 3.712099,4.8473503 5.568671,7.2709213 2.053461,2.680715 4.106505,5.361844 6.159967,8.042558 0.04593,0.06014 0.09625,0.117166 0.187703,0.227903 V 9.5344009 h 5.549044 V 35.034677 h -0.26955 c -1.41456,2.08e-4 -2.82912,-0.0035 -4.24389,0.0054 -0.196681,0.0012 -0.317153,-0.06159 -0.434076,-0.214839 -1.973913,-2.582419 -3.953045,-5.160898 -5.930715,-7.740207 -2.069538,-2.698756 -4.138868,-5.397512 -6.208615,-8.09606 -0.03195,-0.04147 -0.0689,-0.07901 -0.145736,-0.165899 v 16.197927 h -5.54988 V 9.5209217"
                     id="Fill-2" />
                  <path
                     d="m 110.53407,9.5306682 h 5.59978 c 0.005,0.1007834 0.0152,0.1990783 0.0152,0.2973733 8.3e-4,4.7044705 -0.003,9.4087325 0.003,14.1132025 10e-4,1.198618 0.15284,2.375668 0.66458,3.479516 0.71532,1.542235 1.93278,2.443687 3.60583,2.74189 1.0617,0.189124 2.1186,0.161958 3.16151,-0.130231 1.62336,-0.454562 2.67942,-1.506567 3.2442,-3.064562 0.31486,-0.868894 0.43491,-1.773871 0.43554,-2.693156 0.004,-4.815001 0.002,-9.63 0.002,-14.4447932 V 9.5360599 h 5.61314 c 0.005,0.088548 0.013,0.1723272 0.013,0.2563134 -0.003,4.9804837 0.0219,9.9613827 -0.0246,14.9416587 -0.0207,2.187373 -0.51676,4.285576 -1.68745,6.180138 -1.13416,1.835047 -2.76127,3.064148 -4.78925,3.780208 -1.73673,0.613203 -3.53609,0.793203 -5.36928,0.730368 -1.39702,-0.04769 -2.76398,-0.251336 -4.08375,-0.720829 -2.78924,-0.991866 -4.65855,-2.892857 -5.6478,-5.656728 -0.52114,-1.455968 -0.75499,-2.965645 -0.75937,-4.503733 -0.0138,-4.941083 -0.006,-9.882166 -0.007,-14.823456 0,-0.054539 0.006,-0.1092857 0.0104,-0.1893318"
                     id="Fill-3" />
                  <path
                     d="m 98.203066,35.020576 h -5.647385 v -0.31023 c 0,-3.149793 0.0027,-6.299586 -0.0061,-9.449378 -4.17e-4,-0.17606 -0.057,-0.375761 -0.151582,-0.524447 -2.489,-3.914586 -4.986352,-7.824194 -7.482868,-11.734217 -0.684627,-1.072327 -1.371132,-2.14341 -2.056385,-3.2153224 -0.04656,-0.072788 -0.09041,-0.1470277 -0.149494,-0.2434562 0.06932,-0.00954 0.118593,-0.022396 0.167868,-0.022396 2.066615,-0.00124 4.133022,6.222e-4 6.199428,-0.0056 0.162022,-4.148e-4 0.24011,0.065323 0.315693,0.192235 1.948648,3.2626036 3.900428,6.5233406 5.851791,9.7842856 0.05136,0.08585 0.104395,0.170668 0.175593,0.28659 0.370605,-0.606567 0.720956,-1.178295 1.069429,-1.75106 1.680351,-2.760553 3.361538,-5.520692 5.036666,-8.2843548 0.10231,-0.1688018 0.21318,-0.2289401 0.41425,-0.2281106 1.94719,0.00829 3.89458,0.00415 5.84176,0.00435 0.0766,0 0.15325,0.00809 0.26977,0.014516 -0.0695,0.1115668 -0.12068,0.1961751 -0.17414,0.2793318 -2.11861,3.2984786 -4.23659,6.5971656 -6.35622,9.8948156 -1.05127,1.635553 -2.103372,3.270483 -3.160899,4.902096 -0.112121,0.173157 -0.162022,0.344033 -0.161814,0.550784 0.0056,3.197074 0.0044,6.394355 0.0046,9.591428 v 0.268134"
                     id="Fill-4" />
                </g>
              </g>
            </g>
          </g>
        </g>
      </g>
    </g>
  </g>
  <metadata
     id="metadata7548">
    <rdf:RDF>
      <cc:Work
         rdf:about="">
        <dc:title>Imported Layers</dc:title>
      </cc:Work>
    </rdf:RDF>
  </metadata>
</svg>
